Newaita/actions/16/mail-message-new.svg

<?xml version="1.0" encoding="UTF-8"?>
<svg xmlns="http://www.w3.org/2000/svg" xmlns:xlink="http://www.w3.org/1999/xlink" width="16pt" height="16pt" viewBox="0 0 16 16" version="1.1">
<g id="surface1">
<path style=" stroke:none;fill-rule:nonzero;fill:rgb(25.882354%,25.882354%,25.882354%);fill-opacity:1;" d="M 1.984375 2.109375 C 1.25 2.109375 0.660156 2.699219 0.660156 3.433594 L 0.660156 13.023438 C 0.660156 13.757812 1.25 14.347656 1.984375 14.347656 L 9.59375 14.347656 L 9.59375 13.355469 L 2.316406 13.355469 C 1.949219 13.355469 1.652344 13.058594 1.652344 12.695312 L 1.652344 3.867188 L 7.558594 9.152344 C 7.773438 9.34375 8.101562 9.34375 8.320312 9.152344 L 14.222656 3.867188 L 14.222656 8.726562 L 15.214844 8.726562 L 15.214844 3.433594 C 15.214844 2.699219 14.625 2.109375 13.890625 2.109375 Z M 2.511719 3.101562 L 13.367188 3.101562 L 7.9375 7.957031 Z M 2.511719 3.101562 "/>
<path style=" stroke:none;fill-rule:nonzero;fill:rgb(14.901961%,65.098041%,60.392159%);fill-opacity:1;" d="M 10.417969 11.207031 L 14.71875 11.207031 C 14.992188 11.207031 15.214844 11.410156 15.214844 11.660156 L 15.214844 11.746094 C 15.214844 11.996094 14.992188 12.199219 14.71875 12.199219 L 10.417969 12.199219 C 10.144531 12.199219 9.921875 11.996094 9.921875 11.746094 L 9.921875 11.660156 C 9.921875 11.410156 10.144531 11.207031 10.417969 11.207031 Z M 10.417969 11.207031 "/>
<path style=" stroke:none;fill-rule:nonzero;fill:rgb(14.901961%,65.098041%,60.392159%);fill-opacity:1;" d="M 13.066406 9.550781 L 13.066406 13.851562 C 13.066406 14.125 12.863281 14.347656 12.613281 14.347656 L 12.527344 14.347656 C 12.277344 14.347656 12.074219 14.125 12.074219 13.851562 L 12.074219 9.550781 C 12.074219 9.277344 12.277344 9.054688 12.527344 9.054688 L 12.613281 9.054688 C 12.863281 9.054688 13.066406 9.277344 13.066406 9.550781 Z M 13.066406 9.550781 "/>
</g>
</svg>

<svg xmlns="http://www.w3.org/2000/svg" width="16pt" height="16pt" viewBox="0 0 16 16"><path d="M1.984 2.11A1.32 1.32 0 0 0 .66 3.433v9.59c0 .734.59 1.324 1.324 1.324h7.61v-.993H2.316a.663.663 0 0 1-.664-.66V3.867L7.56 9.152a.577.577 0 0 0 .761 0l5.903-5.285v4.86h.992V3.434a1.32 1.32 0 0 0-1.324-1.325zm.528.992h10.855l-5.43 4.855zm0 0" fill="#424242"/><path d="M10.418 11.207h4.3c.274 0 .497.203.497.453v.086c0 .25-.223.453-.496.453h-4.301c-.273 0-.496-.203-.496-.453v-.086c0-.25.223-.453.496-.453zm0 0" fill="#26a69a"/><path d="M13.066 9.55v4.302c0 .273-.203.496-.453.496h-.086c-.25 0-.453-.223-.453-.496V9.55c0-.274.203-.496.453-.496h.086c.25 0 .453.222.453.496zm0 0" fill="#26a69a"/></svg>
